X:1
T:James Gibb editions
T:O little town of Bethlehem (II) - Barnby
%%score [ ( 1 2 ) ( 3 4 ) ]
L:1/8
Q:1/4=80
M:4/4
K:G
V:1 treble nm="Midi_74"
V:2 treble 
V:3 bass nm="Midi_74"
V:4 bass 
V:1
"^Bethlehem (86. 86. 76. 86)""^Phillips Brooks\n(1835-93)""^O little town of Bethlehem (II)""^Joseph Barnby\n(1838-96)" B2 | %1
"^1" D2 E2 F2 G2 | A3 B A2 || c2 | E2 F2 G2 A2 | D6 || B2 | B3 c B2 B2 | B3 c B2 || d2 | %10
 d2 A2 G2 E2 | D6 ||[M:4/4] D2 | A3 A G2 A2 | B4 G2 || A2 | B2 B2 c2 d2 | e6 || e2 | e3 A A2 d2 | %20
 d3 G G2 | c2 | B2 AE G2 F2 | G6 || G4 G4 |] %25
V:2
 B,2 | B,2 B,2 D2 B,2 | C3 C C2 || E2 | E2 D2 D2 C2 | (C2 A,2) B,2 || D2 | ^D2 E2 F2 E2 | %8
 ^D2 F2 G2 || G2 | F2 D2 ^C2 C2 | D6 ||[M:4/4] D2 | D3 D D2 D2 | D4 D2 || F2 | G2 G2 G2 G2 | G6 || %18
 G2 | G2 G2 F2 F2 | G2 =F2 E2 | F2 | G2- E2 D2 D2 | D6 || E4 D4 |] %25
V:3
 D,2 | G,2 D,2 B,2 G,2 | E,3 E, A,2 || E,2 | G,2 F,2 E,2 F,2 | G,6 || B,2 | A,2 G,2 F,2 G,2 | %8
 A,2 A,2 G,2 || B,2 | A,2 F,2 E,2 G,2 | F,6 || %12
[M:4/4]"^1 O little town of Bethlehem,\nhow still we see thee lie!\nabove thy deep and dreamless sleep\nthe silent stars go by:\nyet in thy dark streets shineth\nthe everlasting Light;\nthe hopes and fears of all the years\nare met in thee tonight.\n\n2 O morning stars, together\nproclaim the holy birth,\nand praises sing to God the King,\nand peace to men on earth.\nFor Christ is born of Mary;\nand, gathered all above,\nwhile mortals sleep, the angels keep\ntheir watch of wondering love." D,2 | %13
 C3 C C2 C2 | B,4 D2 || C2 | B,2 D2 C2 B,2 | C6 || %18
"^3 How silently, how silently,\nthe wondrous gift is given!\nso God imparts to human hearts\nthe blessings of his heaven.\nNo ear may hear his coming;\nbut in this world of sin,\nwhere meek souls will receive him, still\nthe dear Christ enters in.\n\n4 O holy Child of Bethlehem,\ndescend to us, we pray;\ncast out our sin, and enter in:\nbe born in us today.\nWe hear the Christmas angels\nthe great glad tidings tell:\nO come to us, abide with us,\nour Lord Emmanuel." _B,2 | %19
 A,2 ^C2 D2 =C2 | B,2 D2 C2 | C2 | D2 C2 B,2 C2 | B,6 || C4 B,4 |] %25
V:4
 G,,2 | G,,2 G,,2 G,,2 G,,2 | G,,3 G,, G,,2 || G,,2 | D,2 D,2 D,2 D,2 | G,6 || G,2 | %7
 F,2 E,2 ^D,2 E,2 | F,2 ^D,2 E,2 || E,2 | A,,2 A,,2 A,,2 A,,2 | D,6 ||[M:4/4] D,2 | %13
 F,3 F, E,2 F,2 | G,4 B,2 || A,2 | G,2 =F,2 E,2 D,2 | C,6 || C,2 | ^C,2 A,,2 D,2 D,2 | %20
 G,,2 B,,2 C,2 | A,,2 | B,,2 C,2 D,2 D,2 | G,,6 || C,4 G,,4 |] %25

